X: 082
M: C|
L: 1/8
K: Am
V: 1
e | c<Ae>A c>ee>^f | g>deg d>gB>g | a>eg>d e>cde | f>de^g aAA :|
V: 2 clef=bass middle=d
z | a2a2 a2c'2 | b2c'2 b2g2 | c'2b2 c'2g2 | dfe2 a2A :|
z | [e2c2][e2c2] [f2c2][e2c2] | B2c2 g2f2 | e2[e2c2] [f2c2][e2c2] | d2e2 a2A2 |
    [e2c2][e2c2] [f2c2][e2c2] | B2c2 g2z2 | A2B2 c2df | e2E2 a2A |]


